src/assets/images/vector-1239.svg

<svg width="291" height="35" viewBox="0 0 291 35" fill="none" xmlns="http://www.w3.org/2000/svg">
<path d="M250.973 1V0H251.34L251.62 0.237846L250.973 1ZM291 35L279.641 32.9263L287.116 24.1257L291 35ZM286.711 31.3571L286.064 32.1193L283.205 29.6907L283.852 28.9286L284.5 28.1664L287.359 30.595L286.711 31.3571ZM280.993 26.5L280.346 27.2622L277.487 24.8336L278.134 24.0714L278.782 23.3093L281.641 25.7378L280.993 26.5ZM275.275 21.6429L274.628 22.405L271.769 19.9764L272.416 19.2143L273.063 18.4521L275.923 20.8807L275.275 21.6429ZM269.557 16.7857L268.91 17.5479L266.051 15.1193L266.698 14.3571L267.345 13.595L270.204 16.0236L269.557 16.7857ZM263.839 11.9286L263.191 12.6907L260.332 10.2622L260.98 9.5L261.627 8.73785L264.486 11.1664L263.839 11.9286ZM258.121 7.07143L257.473 7.83358L254.614 5.40501L255.262 4.64286L255.909 3.8807L258.768 6.30928L258.121 7.07143ZM252.403 2.21429L251.755 2.97644L250.326 1.76215L250.973 1L251.62 0.237846L253.05 1.45213L252.403 2.21429ZM250.973 1V2H248.949V1V0H250.973V1ZM244.901 1V2H240.853V1V0H244.901V1ZM236.805 1V2H232.757V1V0H236.805V1ZM228.709 1V2H224.661V1V0H228.709V1ZM220.613 1V2H216.565V1V0H220.613V1ZM212.518 1V2H208.47V1V0H212.518V1ZM204.422 1V2H200.374V1V0H204.422V1ZM196.326 1V2H192.278V1V0H196.326V1ZM188.23 1V2H184.182V1V0H188.23V1ZM180.134 1V2H176.086V1V0H180.134V1ZM172.038 1V2H167.99V1V0H172.038V1ZM163.942 1V2H159.894V1V0H163.942V1ZM155.846 1V2H151.798V1V0H155.846V1ZM147.75 1V2H143.702V1V0H147.75V1ZM139.654 1V2H135.606V1V0H139.654V1ZM131.559 1V2H127.511V1V0H131.559V1ZM123.463 1V2H119.415V1V0H123.463V1ZM115.367 1V2H111.319V1V0H115.367V1ZM107.271 1V2H103.223V1V0H107.271V1ZM99.1749 1V2H95.1269V1V0H99.1749V1ZM91.0789 1V2H87.031V1V0H91.0789V1ZM82.983 1V2H78.9351V1V0H82.983V1ZM74.8871 1V2H70.8391V1V0H74.8871V1ZM66.7912 1V2H62.7432V1V0H66.7912V1ZM58.6953 1V2H54.6473V1V0H58.6953V1ZM50.5993 1V2H46.5514V1V0H50.5993V1ZM42.5034 1V2H38.4555V1V0H42.5034V1ZM34.4075 1V2H30.3596V1V0H34.4075V1ZM26.3116 1V2H22.2636V1V0H26.3116V1ZM18.2157 1V2H14.1677V1V0H18.2157V1ZM10.1198 1V2H6.07181V1V0H10.1198V1ZM2.02386 1V2H0V1V0H2.02386V1Z" fill="black"/>
</svg>

<svg xmlns="http://www.w3.org/2000/svg" width="291" height="35" fill="none" viewBox="0 0 291 35"><path fill="#000" d="M250.973 1V0h.367l.28.238zM291 35l-11.359-2.074 7.475-8.8zm-4.289-3.643-.647.762-2.859-2.428.647-.762.648-.763 2.859 2.429zm-5.718-4.857-.647.762-2.859-2.428.647-.763.648-.762 2.859 2.429zm-5.718-4.857-.647.762-2.859-2.429.647-.762.647-.762 2.86 2.429zm-5.718-4.857-.647.762-2.859-2.429.647-.762.647-.762 2.859 2.429zm-5.718-4.857-.648.762-2.859-2.429.648-.762.647-.762 2.859 2.428zm-5.718-4.858-.648.763-2.859-2.429.648-.762.647-.762 2.859 2.428zm-5.718-4.857-.648.762-1.429-1.214.647-.762.647-.762 1.43 1.214zM250.973 1v1h-2.024V0h2.024zm-6.072 0v1h-4.048V0h4.048zm-8.096 0v1h-4.048V0h4.048zm-8.096 0v1h-4.048V0h4.048zm-8.096 0v1h-4.048V0h4.048zm-8.095 0v1h-4.048V0h4.048zm-8.096 0v1h-4.048V0h4.048zm-8.096 0v1h-4.048V0h4.048zm-8.096 0v1h-4.048V0h4.048zm-8.096 0v1h-4.048V0h4.048zm-8.096 0v1h-4.048V0h4.048zm-8.096 0v1h-4.048V0h4.048zm-8.096 0v1h-4.048V0h4.048zm-8.096 0v1h-4.048V0h4.048zm-8.096 0v1h-4.048V0h4.048zm-8.095 0v1h-4.048V0h4.048zm-8.096 0v1h-4.048V0h4.048zm-8.096 0v1h-4.048V0h4.048zm-8.096 0v1h-4.048V0h4.048zm-8.096 0v1h-4.048V0h4.048zm-8.096 0v1H87.03V0h4.048zm-8.096 0v1h-4.048V0h4.048zm-8.096 0v1H70.84V0h4.048zm-8.096 0v1h-4.048V0h4.048zm-8.096 0v1h-4.048V0h4.048zM50.6 1v1h-4.048V0H50.6zm-8.096 0v1h-4.047V0h4.047zm-8.096 0v1H30.36V0h4.047zm-8.095 0v1h-4.048V0h4.048zm-8.096 0v1h-4.048V0h4.048zM10.12 1v1H6.072V0h4.048zM2.024 1v1H0V0h2.024z"/></svg>
